src/assets/icons/info.svg

<svg viewBox="0 0 106.98 49.02" xmlns="http://www.w3.org/2000/svg"><g fill="#fff"><path d="m4.43 0a4.43 4.43 0 0 1 3.16 1.2 4.13 4.13 0 0 1 1.27 3.16 4.17 4.17 0 0 1 -1.27 3.08 4.28 4.28 0 0 1 -3.16 1.27 4.37 4.37 0 0 1 -3.16-1.23 4.15 4.15 0 0 1 -1.27-3.12 4.13 4.13 0 0 1 1.27-3.16 4.43 4.43 0 0 1 3.16-1.2zm2.25 12h-4.5v36.3h4.5z"/><path d="m44.19 15q2.66 3.78 2.65 12.49v20.81h-4.79v-20.78q0-6.24-1.82-9.18a6.11 6.11 0 0 0 -5.59-2.94q-6 0-9.11 8t-3.16 21.12c0 1.65 0 2.9.07 3.78h-4.86v-36.3h4.79l-2.54 27.44h1.3a86.49 86.49 0 0 1 1-11.19 34.71 34.71 0 0 1 2.87-9.59 15.61 15.61 0 0 1 4.41-5.66 10.08 10.08 0 0 1 6-1.7q6.13-.04 8.78 3.7z"/><path d="m57.26 14.34a7.71 7.71 0 0 1 -1.26-4.34 5.76 5.76 0 0 1 2.65-4.86 11.58 11.58 0 0 1 6.87-1.89q4.86 0 7.19 2.58a9.7 9.7 0 0 1 2.61 5.7l-4.32 1.91a8 8 0 0 0 -1.89-4.33 5.57 5.57 0 0 0 -4.36-1.7 4.81 4.81 0 0 0 -3.7 1.2 4.27 4.27 0 0 0 -1.09 3c0 1.55 1 2.71 3 3.49a20 20 0 0 0 7.12 1.16v3.74h-6.46v28.3h-4.79v-28.3h-5.83v-3.73l9.8 1.89v-1.53q-4.27-.36-5.54-2.29z"/><path d="m107 30.14q0 8.36-3.89 13.62t-11.6 5.24q-7.71 0-11.59-5.26t-3.92-13.6q0-8.35 3.88-13.62t11.59-5.26q7.69 0 11.58 5.26t3.95 13.62zm-26.08 0q0 6.68 2.62 10.6c1.74 2.62 4.4 3.92 8 3.92s6.24-1.3 8-3.92 2.61-6.15 2.61-10.6-.87-7.87-2.61-10.53-4.41-4-8-4-6.25 1.34-8 4-2.64 6.17-2.64 10.53z"/></g></svg>

<svg xmlns="http://www.w3.org/2000/svg" viewBox="0 0 106.98 49.02"><defs><style>.cls-1{fill:#fff;}</style></defs><title>info</title><g id="Layer_2" data-name="Layer 2"><g id="Calque_1" data-name="Calque 1"><path class="cls-1" d="M4.43,0A4.43,4.43,0,0,1,7.59,1.2,4.13,4.13,0,0,1,8.86,4.36,4.17,4.17,0,0,1,7.59,7.44,4.28,4.28,0,0,1,4.43,8.71,4.37,4.37,0,0,1,1.27,7.48,4.15,4.15,0,0,1,0,4.36,4.13,4.13,0,0,1,1.27,1.2,4.43,4.43,0,0,1,4.43,0ZM6.68,12H2.18V48.3h4.5Z"/><path class="cls-1" d="M44.19,15q2.66,3.78,2.65,12.49V48.3H42.05V27.52q0-6.24-1.82-9.18a6.11,6.11,0,0,0-5.59-2.94q-6,0-9.11,8T22.37,44.52c0,1.65,0,2.9.07,3.78H17.58V12h4.79L19.83,39.44h1.3a86.49,86.49,0,0,1,1-11.19A34.71,34.71,0,0,1,25,18.66,15.61,15.61,0,0,1,29.41,13a10.08,10.08,0,0,1,6-1.7Q41.54,11.26,44.19,15Z"/><path class="cls-1" d="M57.26,14.34A7.71,7.71,0,0,1,56,10a5.76,5.76,0,0,1,2.65-4.86,11.58,11.58,0,0,1,6.87-1.89q4.86,0,7.19,2.58a9.7,9.7,0,0,1,2.61,5.7L71,13.44a8,8,0,0,0-1.89-4.33,5.57,5.57,0,0,0-4.36-1.7,4.81,4.81,0,0,0-3.7,1.2,4.27,4.27,0,0,0-1.09,3c0,1.55,1,2.71,3,3.49a20,20,0,0,0,7.12,1.16V20H63.62V48.3H58.83V20H53V16.27l9.8,1.89V16.63Q58.53,16.27,57.26,14.34Z"/><path class="cls-1" d="M107,30.14q0,8.36-3.89,13.62T91.51,49q-7.71,0-11.59-5.26T76,30.14q0-8.35,3.88-13.62t11.59-5.26q7.69,0,11.58,5.26T107,30.14Zm-26.08,0q0,6.68,2.62,10.6c1.74,2.62,4.4,3.92,8,3.92s6.24-1.3,8-3.92,2.61-6.15,2.61-10.6-.87-7.87-2.61-10.53-4.41-4-8-4-6.25,1.34-8,4S80.9,25.78,80.9,30.14Z"/></g></g></svg>
